components/icon/desktop.svg

<svg width="16" height="16" viewBox="0 0 16 16" fill="none" xmlns="http://www.w3.org/2000/svg">
<path d="M14 10.6667H2.00002V2.66671H14M14 1.33337H2.00002C1.26002 1.33337 0.666687 1.92671 0.666687 2.66671V10.6667C0.666687 11.0203 0.807163 11.3595 1.05721 11.6095C1.30726 11.8596 1.6464 12 2.00002 12H6.66669V13.3334H5.33335V14.6667H10.6667V13.3334H9.33335V12H14C14.3536 12 14.6928 11.8596 14.9428 11.6095C15.1929 11.3595 15.3334 11.0203 15.3334 10.6667V2.66671C15.3334 1.92671 14.7334 1.33337 14 1.33337Z" fill="#4E4E4E"/>
</svg>

<svg xmlns="http://www.w3.org/2000/svg" viewBox="0 0 16 16" width="16" height="16"><path d="M14 10.67H2v-8h12m0-1.34H2c-.74 0-1.33.6-1.33 1.34v8A1.33 1.33 0 0 0 2 12h4.67v1.33H5.33v1.34h5.34v-1.34H9.33V12H14a1.33 1.33 0 0 0 1.33-1.33v-8c0-.74-.6-1.34-1.33-1.34Z"/></svg>
